X: 42677
T: Whistlebinkies, The
R: reel
M: 4/4
K: Bminor
A|Bfff f2 Bf|f2 {e}f2 eccB|Afff f2 Bf|f2 ec BBB:|
A|BBBc d2 de|fgfe f2 ed|cccd e2 cA|g2 fe f2 ec|
BBBc d2 ef|g2 fe f2 ed|cccd e2 cA|f2 ec B3||

